packages/foundations/assets/icons/functional/images/transportation/taxi_24.svg

<svg width="24" height="24" viewBox="0 0 24 24" fill="none" xmlns="http://www.w3.org/2000/svg">
<g clip-path="url(#clip0_187_947)">
<path fill-rule="evenodd" clip-rule="evenodd" d="M16.5069 5C17.5692 5 18.484 5.72082 18.7949 6.74482L19.793 11H21.3518C21.6882 11 21.9487 11.2275 21.9932 11.5459L22 12.3107C22 12.6452 21.7701 12.9412 21.4503 12.9922L20.5171 13.0006C20.5498 13.162 20.567 13.329 20.567 13.5C20.567 13.614 20.4376 14.7835 20.1787 17.0083C20.0817 17.8493 19.6411 18.5811 19.0014 19.0624L19 21C19 21.5523 18.5523 22 18 22H17C16.4477 22 16 21.5523 16 21V19.78C14.6667 19.9267 13.3333 20 12 20C10.6667 20 9.33333 19.9267 8 19.78V21C8 21.5523 7.55228 22 7 22H6C5.44772 22 5 21.5523 5 21L4.99963 19.0631C4.41272 18.6219 3.99322 17.97 3.8526 17.2163L3.44951 13.7866C3.41842 13.5172 3.43139 13.2528 3.48269 13.0008L2.64823 13C2.2782 13 2 12.6787 2 12.3107V11.644C2 11.2753 2.2782 11 2.64823 11H4.206L5.16105 6.90897C5.40716 5.8542 6.33145 5 7.49309 5H16.5069ZM6 12.9922C5.58265 13.0008 5.40949 13.2984 5.43403 13.4671L5.487 14H6C6.55228 14 7 14.4477 7 15C7 15.5128 6.5938 16 6 16H5.718L5.80806 16.779C5.85777 17.2098 6.17795 17.5547 6.5938 17.6427C7.08123 17.722 10.0766 17.9969 12 18C13.9234 18.0031 16.8471 17.716 17.2905 17.6602C17.7223 17.6203 18.0744 17.308 18.1718 16.8943L18.281 16H18C17.4477 16 17 15.5523 17 15C17 14.4872 17.416 14 18 14H18.512L18.567 13.5C18.5868 13.295 18.4397 12.9922 18 13L6 12.9922ZM14 14C14.5523 14 15 14.4477 15 15C15 15.5128 14.5799 16 14 15.9933L10 16C9.44772 16 9 15.5523 9 15C9 14.4872 9.42801 14.0067 10 14.0067L14 14ZM7.49309 7C7.35029 7 7.20851 7.10154 7.13782 7.27238L6.259 11H17.74L16.8913 7.36343C16.8462 7.17038 16.7329 7 16.5069 7H7.49309ZM14 2C14.5523 2 15 2.44772 15 3C15 3.51284 14.575 4 14 4H10C9.44772 4 9 3.55228 9 3C9 2.48716 9.3912 2 10 2H14Z" fill="#1A1C1F"/>
</g>
<defs>
<clipPath id="clip0_187_947">
<rect width="24" height="24" fill="white"/>
</clipPath>
</defs>
</svg>

<svg xmlns="http://www.w3.org/2000/svg" width="24" height="24" fill="none"><g clip-path="url(#a)"><path fill="#1A1C1F" fill-rule="evenodd" d="M16.507 5c1.062 0 1.977.72 2.288 1.745L19.793 11h1.559c.336 0 .597.227.641.546l.007.765c0 .334-.23.63-.55.681l-.933.009q.05.242.05.499 0 .172-.388 3.508A3 3 0 0 1 19 19.062L19 21a1 1 0 0 1-1 1h-1a1 1 0 0 1-1-1v-1.22a36.6 36.6 0 0 1-8 0V21a1 1 0 0 1-1 1H6a1 1 0 0 1-1-1v-1.937a3 3 0 0 1-1.147-1.847l-.403-3.43a2.5 2.5 0 0 1 .033-.785L2.648 13c-.37 0-.648-.321-.648-.69v-.666A.63.63 0 0 1 2.648 11h1.558l.955-4.091C5.407 5.854 6.331 5 7.493 5zM6 12.992c-.417.009-.59.306-.566.475l.053.533H6a1 1 0 1 1 0 2h-.282l.09.779a1 1 0 0 0 .786.864c.487.079 3.483.354 5.406.357s4.847-.284 5.29-.34a1 1 0 0 0 .882-.766L18.28 16H18a1 1 0 1 1 0-2h.512l.055-.5c.02-.205-.127-.508-.567-.5zM14 14a.997.997 0 1 1 0 1.993L10 16a1 1 0 0 1-1-1c0-.513.428-.993 1-.993zM7.493 7c-.143 0-.284.102-.355.272L6.259 11H17.74l-.849-3.637C16.846 7.17 16.733 7 16.507 7zM14 2a1 1 0 0 1 1 1c0 .513-.425 1-1 1h-4a1 1 0 0 1-1-1c0-.513.391-1 1-1z" clip-rule="evenodd"/></g><defs><clipPath id="a"><path fill="#fff" d="M0 0h24v24H0z"/></clipPath></defs></svg>
